X:24
T:Schottis från Skeda
T:Schottis ur Bengt Olssons samling (SmM V-24)
R:Schottis
O:Skeda, Nottebäck, Småland
S:Bengt Olsson
B:Småländsk Musiktradition
N:Ca 1940
M:2/4
L:1/16
K:D
(dc)BA (AG)FE|(D2F2) A3E|C2E2 (AG)FE|(DF)BF A2A2|
dcBA AGFE|(DC)DF (A^G)Ac|e2c2 (AG)FE|D2F2 D4:|
|:d2(cd) (ed)cB|A2F2 D2(EF)|G2E2 C2(FG)|(AG)FE F2D2|
d2(cd) (ed)cB|A2F2 D2(EF)|G2E2 c2(Ac)|(e2d2) d4:|

